X: 15971
T: Granuale
R: barndance
M: 4/4
K: Gmajor
dc|:(3Bcd BG cecA|(3BdB GB AGFE|CDEF GABd|ga (3bag a2 dc|
(3Bcd BG cecA|(3BdB GB AGFE|CDEF GBdc|BGAF G3:|
(3def|:gfgb afd2|ecAe dBG2|d2{e}dc defg|agfg a2 (3def|
gfgb afd2|ecAe dBG2|(3efg fe dcBA|G2 B2 G2:|
Bc|:(3dBd (3gfg bgdg|fe^df e2 fe|d^c=cA FDBA|(3GFG (3BcB d2 Bc|
(3dBd (3gfg bgdg|fe^df e2 fe|d^c=cA FDBA|G2 B2 G2:|
ga|:bagb agfa|gee^d e2fg|agfa gfeg|fdd^c d2d=c|
BGBc defg|fe^df e2fe|d^c=cA FDBA|G2 B2 G2 ga:|

